static/img/services/hashicorp.svg

<svg width="142" height="33" viewBox="0 0 142 33" fill="none" xmlns="http://www.w3.org/2000/svg">
<path d="M47.9229 25.6561V18.0534H41.2382V25.6561H37.8252V7.64978H41.2382V15.0642H47.9229V7.64978H51.3358V25.6561H47.9229Z" fill="white"/>
<path d="M60.5862 20.6189H58.1618C57.079 20.6189 56.7731 20.9249 56.7731 21.9135C56.7731 22.8315 57.079 23.2316 58.0912 23.2316C59.0562 23.2316 59.9506 22.9021 60.5862 22.549C60.5862 22.5726 60.5862 20.6189 60.5862 20.6189ZM63.905 25.6089H61.1981L60.9628 24.7145C59.7859 25.4677 58.4442 25.8678 57.032 25.8678C54.6311 25.8678 53.5955 24.2202 53.5955 21.9606C53.5955 19.2773 54.7488 18.2652 57.4321 18.2652H60.5862V16.8764C60.5862 15.4171 60.186 14.8993 58.0676 14.8993C56.8672 14.8993 55.5726 15.064 54.4193 15.2994L54.0191 12.7809C55.2666 12.4043 57.079 12.1689 58.5384 12.1689C62.681 12.1689 63.8814 13.6282 63.8814 16.9235L63.905 25.6089ZM70.2837 25.8678C68.8714 25.8678 66.9649 25.5383 65.7409 25.1146L66.2117 22.5961C67.3179 22.9256 68.7773 23.161 70.1425 23.161C71.6018 23.161 71.8136 22.8315 71.8136 21.8429C71.8136 21.0426 71.6489 20.6189 69.5069 20.1246C66.2823 19.3479 65.9057 18.5241 65.9057 15.982C65.9057 13.3222 67.059 12.1689 70.825 12.1689C72.049 12.1689 73.626 12.3337 74.7794 12.6396L74.4499 15.2523C73.4377 15.064 71.8607 14.8757 70.825 14.8757C69.3892 14.8757 69.1539 15.2053 69.1539 16.0055C69.1539 17.0647 69.2245 17.1353 71.0134 17.6061C74.6852 18.5711 75.0383 19.0654 75.0383 21.7723C75.0383 24.3143 74.238 25.8678 70.2837 25.8678ZM84.8535 25.6089V16.4292C84.8535 15.7231 84.5475 15.37 83.7943 15.37C82.994 15.37 81.5582 15.8643 80.3578 16.4763V25.6089H77.0625V7.06121L80.3578 6.59045V13.4399C81.8171 12.6867 83.7708 12.1689 85.1595 12.1689C87.3485 12.1689 88.1253 13.7224 88.1253 16.0526V25.5854H84.8535V25.6089Z" fill="white"/>
<path d="M90.5731 25.609H93.8683V12.4514H90.5731V25.609ZM90.5731 10.5684H93.8683V6.75532H90.5731V10.5684ZM96.175 12.5456C96.175 9.25032 98.1051 7.32023 102.577 7.32023C104.248 7.32023 105.99 7.53207 107.473 7.90867L107.097 10.8509C105.637 10.592 103.942 10.3801 102.695 10.3801C100.341 10.3801 99.588 11.1804 99.588 13.1105V20.0306C99.588 21.9607 100.341 22.761 102.695 22.761C103.942 22.761 105.637 22.5727 107.097 22.2902L107.473 25.2324C105.99 25.609 104.248 25.8209 102.577 25.8209C98.0816 25.8209 96.175 23.8908 96.175 20.5955C96.175 20.6661 96.175 12.5456 96.175 12.5456ZM114.228 14.97C112.463 14.97 111.804 15.7467 111.804 17.2296V20.7603C111.804 22.2431 112.487 23.0199 114.228 23.0199C115.994 23.0199 116.653 22.2431 116.653 20.7603V17.2296C116.653 15.7703 115.994 14.97 114.228 14.97ZM114.228 25.8679C109.709 25.8679 108.509 23.3729 108.509 20.6896V17.3708C108.509 14.664 109.733 12.169 114.228 12.169C118.748 12.169 119.948 14.664 119.948 17.3708V20.6896C119.948 23.3965 118.748 25.8679 114.228 25.8679ZM128.704 15.2054C127.433 15.7703 126.397 16.3587 125.221 17.1355V25.6326H121.925V12.475H124.703L124.915 13.9343C125.644 13.44 127.221 12.5221 128.375 12.1925L128.704 15.2054ZM133.341 22.7139C134.212 22.9022 135.318 23.0669 136.26 23.0669C137.46 23.0669 137.907 22.502 137.907 21.3016V16.6412C137.907 15.5584 137.507 14.97 136.283 14.97C135.201 14.97 134.047 15.5113 133.341 16.1704V22.7139ZM141.226 21.231C141.226 24.1497 139.932 25.8915 136.872 25.8915C135.718 25.8915 134.377 25.7267 133.365 25.5149V30.9521L130.069 31.4228V12.475H132.682L133.012 13.5813C134.165 12.7339 135.53 12.1925 137.178 12.1925C139.837 12.1925 141.226 13.7696 141.226 16.7588V21.231ZM12.9928 0L0 7.48499V25.4913L4.8723 28.3159V10.3095L12.9928 5.62551V0Z" fill="white"/>
<path d="M18.1714 0V14.3345H12.9932V8.96786L8.12085 11.7924V30.1753L12.9932 32.9999V18.7125H18.1714V24.032L23.0438 21.2075V2.82452L18.1714 0Z" fill="white"/>
<path d="M18.1714 33.0001L31.1642 25.5151V7.50879L26.2919 4.68427V22.6906L18.1714 27.3746V33.0001V33.0001Z" fill="white"/>
</svg>

<svg width="142" height="33" fill="none" xmlns="http://www.w3.org/2000/svg"><path d="M47.923 25.656v-7.603h-6.685v7.603h-3.413V7.65h3.413v7.414h6.685V7.65h3.413v18.006h-3.413ZM60.586 20.619h-2.424c-1.083 0-1.389.306-1.389 1.294 0 .918.306 1.319 1.318 1.319.965 0 1.86-.33 2.495-.683v-1.93Zm3.319 4.99h-2.707l-.235-.895a7.238 7.238 0 0 1-3.931 1.154c-2.4 0-3.436-1.648-3.436-3.907 0-2.684 1.153-3.696 3.836-3.696h3.154v-1.389c0-1.459-.4-1.977-2.518-1.977-1.2 0-2.495.165-3.649.4l-.4-2.518c1.248-.377 3.06-.612 4.52-.612 4.142 0 5.342 1.46 5.342 4.755l.024 8.685Zm6.379.259c-1.413 0-3.32-.33-4.543-.753l.47-2.519c1.107.33 2.566.565 3.931.565 1.46 0 1.672-.33 1.672-1.318 0-.8-.165-1.224-2.307-1.718-3.225-.777-3.601-1.6-3.601-4.143 0-2.66 1.153-3.813 4.919-3.813 1.224 0 2.801.165 3.954.47l-.33 2.613c-1.011-.188-2.588-.376-3.624-.376-1.436 0-1.671.33-1.671 1.13 0 1.059.07 1.13 1.86 1.6 3.671.965 4.024 1.46 4.024 4.166 0 2.542-.8 4.096-4.754 4.096Zm14.57-.26V16.43c0-.706-.306-1.059-1.06-1.059-.8 0-2.236.494-3.436 1.106v9.133h-3.296V7.06l3.296-.47v6.849c1.46-.753 3.413-1.271 4.801-1.271 2.19 0 2.966 1.553 2.966 3.884v9.532h-3.272v.024ZM90.573 25.609h3.295V12.451h-3.295V25.61Zm0-15.04h3.295V6.754h-3.295v3.813Zm5.602 1.977c0-3.296 1.93-5.226 6.402-5.226 1.671 0 3.413.212 4.896.589l-.376 2.942c-1.46-.259-3.155-.47-4.402-.47-2.354 0-3.107.8-3.107 2.73v6.92c0 1.93.753 2.73 3.107 2.73 1.247 0 2.942-.188 4.402-.47l.376 2.941c-1.483.377-3.225.589-4.896.589-4.495 0-6.402-1.93-6.402-5.226v-8.05Zm18.053 2.424c-1.765 0-2.424.777-2.424 2.26v3.53c0 1.483.683 2.26 2.424 2.26 1.766 0 2.425-.777 2.425-2.26v-3.53c0-1.46-.659-2.26-2.425-2.26Zm0 10.898c-4.519 0-5.719-2.495-5.719-5.178v-3.32c0-2.706 1.224-5.201 5.719-5.201 4.52 0 5.72 2.495 5.72 5.202v3.319c0 2.706-1.2 5.178-5.72 5.178Zm14.476-10.663c-1.271.565-2.307 1.154-3.483 1.93v8.498h-3.296V12.475h2.778l.212 1.46c.729-.495 2.306-1.413 3.46-1.742l.329 3.012Zm4.637 7.509c.871.188 1.977.353 2.919.353 1.2 0 1.647-.565 1.647-1.765v-4.66c0-1.084-.4-1.672-1.624-1.672-1.082 0-2.236.541-2.942 1.2v6.544Zm7.885-1.483c0 2.919-1.294 4.66-4.354 4.66a18.4 18.4 0 0 1-3.507-.376v5.437l-3.296.47V12.476h2.613l.33 1.106c1.153-.847 2.518-1.388 4.166-1.388 2.659 0 4.048 1.577 4.048 4.566v4.472ZM12.993 0 0 7.485v18.006l4.872 2.825V10.31l8.12-4.684V0Z" fill="#fff"/><path d="M18.171 0v14.335h-5.178V8.968l-4.872 2.824v18.383L12.993 33V18.712h5.178v5.32l4.873-2.825V2.825L18.17 0Z" fill="#fff"/><path d="m18.171 33 12.993-7.485V7.51l-4.872-2.825v18.007l-8.12 4.684V33Z" fill="#fff"/></svg>
